X: 1
T: Nada Sou Sou
T: Tears Falling
C: Begin (Okinawa)
N: Simplified version of the melody, from several recordings
M: 2/4
L: 1/16
K: F
|: "F" C4 D2F2 | "C"C4 D2F2 | "Bb"F4 G2F2 | "F"A4 |\
"Bb"D4 F2G2 | "F"C4 "D7/F#"B2A2 |1 "Gm7"G2D2 F2G2 | G4 z4 :|2 "Gm7"G2D2 "C7"E4 | "F"F8 ||
"F"z2A2 c2A2 | "C"c6 A2 | "Cm"c4 "F"d2c2 |\
"Bb"F4 G2A2 | "F"A8 | "Gm7"z2G2 G2A2 | "F"c2c2 A2A2 | "C"G8 |
"C7"z2A2 c2A2 | "Am"c6 A2 | "D7"c4 d2c2 | "BbM7"F4 G2A2 |\
"F"A8 | "BbM7"F2F2 G2A2 | "F"F4 z2C2 | "BbM7"F2F2 G2A2 |
"F"A8 | "BbM7"F4 G2A2 | "F"C2C2 "D7/F#"B2A2 | "Gm7"G2D2 "C7"E4 |\
"F"HF4 "(instr)"fe c4 | B4 A4  | z2fe c4 | B4 A4 |]
%
% Japanese:
%W: 古いアルバムめくり　ありがとうってつぶやいた
%W: furui arubamu mekuri arigatou tte tsubuyaita
%W: いつもいつも胸の中　励ましてくれる人よ
%W: itsumo itsumo mune no naka hagemashitte kureru hito yo
%W: 晴れ渡る日も　雨の日も　浮かぶあの笑顔
%W: harewataru hi mo ame no hi mo ukabu ano egao
%W: 想い出遠くあせても
%W: omoide tooku asete mo
%W: おもかげ探して　よみがえる日は　涙そうそう
%W: omokage sagashitte yomigaeru hi wa nada sousou
%W: 一番星に祈る　それが私のくせになり
%W: ichiban hoshi ni inoru sore ga watashi no kuse ni nari
%W: 夕暮れに見上げる空　心いっぱいあなた探す
%W: yuugure ni miageru sora kokoro ippai anata sagasu
%W: 悲しみにも　喜びにも　想うあの笑顔
%W: kanashimi ni mo yorokobi ni mo omou ano egao
%W: あなたの場所から私が
%W: anata no basho kara watashi ga
%W: 見えたら　きっといつか　会えると信じ　生きてゆく
%W: mietara kitto itsuka aeru to shinji ikite yuku
%W: 晴れ渡る日も　雨の日も　浮かぶあの笑顔
%W: harewataru hi mo ame no hi mo ukabu ano egao
%W: 想い出遠くあせても
%W: omoide tooku asete mo
%W: さみしくて　恋しくて　君への想い　涙そうそう
%W: samishikute koishikute kimi e no omoi nada sou sou
%W: 会いたくて　会いたくて　君への想い　涙そうそう
%W: aitakute aitakute kimi e no omoi nada sou sou.
%W:
%W: English translation:
%W: I whisper "thank you", as I leaf through this old photograph album,
%W: to one who always cheered me on, within my heart
%W: And should the memories of that smile I think of,
%W: come rain or shine, fade away into the distance
%W: They return in the days I search for a glimpse of your face, a stream of tears
%W:
%W: Almost a habit now, I wish upon the very first star
%W: Looking within the evening skies for you with all my heart
%W: The memories of that smile I think of, in sorrow or joy
%W: And if you can see me, from where you are
%W: I'll live on, believing that someday we'll meet again
%W:
%W: And should the memories of that smile I think of,
%W: come rain or shine, fade away into the distance
%W: In loneliness and yearning - my feelings for you, a stream of tears
%W: If only we could meet, if only we could meet - my feelings for you, a stream of tears.
